X:24
T:Magasan reül a daru odafenn az égen
M:4/4
L:1/4
K:D
A<A BA | BA F<D |
f<f e d | B2 c2 |
B<c d<e | d/d/c/c/ B A |
d<B A E | D2 D2 |

